X: 8
T:Prunelle
C:Bernard Kerboeuf
Z:Simon Wascher
Z:Dave Holland <dave@biff.org.uk>
D:Attendez jusqu'a demain (Les Chiens Jaunes)
N:originally in D minor
R:Waltz
M:3/4
L:1/4
K:Bb
bad|bad|agd|agd|\
gfc|gfc|f2e|d3:|
|:b/2a/2d/2b/2a/2d/2|b/2a/2d/2b/2a/2d/2|a/2g/2d/2a/2g/2d/2|a/2g/2d/2a/2g/2d/2|\
g/2f/2c/2g/2f/2c/2|g/2f/2c/2g/2f/2c/2|f2e|d3:|
|:GBc|dd/2c/2d/2e/2|d>cB|d3|\
dga|ba/2b/2a/2g/2|b>ag|d3|
d/2e/2f/2g/2f/2e/2|d/2e/2f/2g/2f/2e/2|d>ed|c3|1ceg|\
dcB|dcB|AB/2c/2B/2A/2:|2ced|Bdc|AA/2B/2c/2d/2|G3|]
<end>
<start>
